X:748
M:C|
L:1/8
K:A
f|e<c a>e f<B B>f|e<c a>e f2 f>g|a/g/f/e/ a>e f<B B>g|a>fe>c A2A:|
E|A<A c>A B<F F>B|A<A c>e a>ef>a|e>a c<a B<F F>f|a>fe>c A2 A>E|

